X:1
T:Dolly's Brae
M:6/8
L:1/8
K:C
C/2-D/2| E2 E C2 E| G2 G E2 G/2G/2| c2 cd-c B| c3- c z B| A2 AA-B c|\
 G2 G E2 G|A-F D C2 C| C3- C z C/2D/2| EEE C2 E| G2 G E2 G| A2 D D2 E|\
 D3- DC-D| E2 E C2 E| G2 G E2 G| cccd-c B| c3- c z B| A2 AA-B c| G2 G E2 G|\
 AFD C2 C| C3- C2||
